dist/icons/square-o/dll.svg

<svg xmlns="http://www.w3.org/2000/svg" viewBox="0 0 100 100"><style type="text/css">  
	.st0{fill:#FFFFFF;}
	.st1{fill:#999999;}
</style><rect class="st0" width="100" height="100"/><path class="st1" d="M100 100H0V0h100V100zM9.7 90h80.7V10H9.7"/><path class="st1" d="M76 26.2l-23.8 3.2v18.9H76V26.2zM47.8 29.9l-23.8 3.2v15.2h23.8V29.9zM24.1 52.6v15.2l23.8 3.2v-18.3L24.1 52.6 24.1 52.6zM52.2 52.6v18.9l23.8 3.2V52.6H52.2z"/></svg>

<svg xmlns="http://www.w3.org/2000/svg" viewBox="0 0 100 100"><style>.st1{fill:#999}</style><path fill="#fff" d="M0 0h100v100H0z"/><path class="st1" d="M100 100H0V0h100v100zM9.7 90h80.7V10H9.7"/><path class="st1" d="M76 26.2l-23.8 3.2v18.9H76V26.2zm-28.2 3.7L24 33.1v15.2h23.8V29.9zM24.1 52.6v15.2L47.9 71V52.7l-23.8-.1zm28.1 0v18.9L76 74.7V52.6H52.2z"/></svg>
